; generated by Slic3r 1.2.9 on 2017-03-05 at 14:10:33

; external perimeters extrusion width = 0.40mm
; perimeters extrusion width = 0.48mm
; infill extrusion width = 0.48mm
; solid infill extrusion width = 0.48mm
; top infill extrusion width = 0.48mm

M107
M104 S210 ; set temperature
G28 ; home all axes
;G1 Z5 F5000 ; lift nozzle

M109 S210 ; wait for temperature to be reached
G21 ; set units to millimeters
G90 ; use absolute coordinates
M82 ; use absolute distances for extrusion
G92 E0
G1 Z0.300 F3600.000
G1 E-2.00000 F600.00000
G92 E0
G1 X74.473 Y55.589 F3600.000
G1 E2.00000 F600.00000
G1 X76.241 Y54.011 E2.15833 F1800.000
G1 X78.431 Y53.105 E2.31666
G1 X80.000 Y52.929 E2.42216
G1 X120.000 Y52.929 E5.09437
G1 X122.337 Y53.326 E5.25270
G1 X124.411 Y54.473 E5.41103 F1800.000
G1 X125.989 Y56.241 E5.56936
G1 X126.895 Y58.431 E5.72769
G1 X127.071 Y60.000 E5.83319
G1 X127.071 Y140.000 E11.17762
G1 X126.674 Y142.337 E11.33595
G1 X125.527 Y144.411 E11.49428
G1 X123.759 Y145.989 E11.65261
G1 X121.569 Y146.895 E11.81094
G1 X120.000 Y147.071 E11.91644
G1 X98.390 Y147.071 E13.36010
G1 X96.054 Y146.674 E13.51843
G1 X93.920 Y145.480 E13.68175
G1 X75.478 Y130.436 E15.27169
G1 X73.936 Y128.637 E15.43002
G1 X73.075 Y126.429 E15.58835
G1 X72.929 Y124.999 E15.68433
G1 X72.929 Y60.000 E20.02664
G1 X73.326 Y57.663 E20.18497
G1 X74.444 Y55.642 E20.33929
G1 X74.956 Y55.870 F3600.000
G1 X75.004 Y55.787 E20.34570 F1800.000
G1 X76.753 Y54.328 E20.49788
G1 X80.000 Y53.464 E20.72231
G1 X120.000 Y53.464 E23.39452
G1 X122.243 Y53.861 E23.54669
G1 X124.213 Y55.004 E23.69886 F1800.000
G1 X125.672 Y56.753 E23.85103
G1 X126.536 Y60.000 E24.07546
G1 X126.536 Y140.000 E29.41990
G1 X126.139 Y142.243 E29.57207
G1 X124.996 Y144.213 E29.72424
G1 X123.247 Y145.672 E29.87641
G1 X120.000 Y146.536 E30.10084
G1 X98.390 Y146.536 E31.54450
G1 X96.147 Y146.139 E31.69667
G1 X94.259 Y145.065 E31.84179
G1 X75.869 Y130.064 E33.42721
G1 X74.350 Y128.285 E33.58349
G1 X73.566 Y126.146 E33.73566
G1 X73.464 Y124.999 E33.81258
G1 X73.464 Y60.000 E38.15489
G1 X73.861 Y57.757 E38.30707
G1 X74.926 Y55.921 E38.44882
G1 E36.44882 F600.00000
G92 E0
G1 X115.839 Y86.838 F3600.000
G1 E2.00000 F600.00000
G1 X115.839 Y60.836 E3.73707 F1800.000
G1 X119.164 Y60.836 E3.95925
G1 X119.164 Y97.603 E6.41549
G1 X99.676 Y113.500 E8.09565
G1 X119.164 Y129.397 E9.77580
G1 X119.164 Y139.164 E10.42829
G1 X98.688 Y139.164 E11.79625
G1 X80.836 Y124.603 E13.33530
G1 X80.836 Y60.836 E17.59528
G1 X84.161 Y60.836 E17.81746
G1 X84.161 Y86.838 E19.55453
G1 X115.779 Y86.838 E21.66674
G1 X115.303 Y86.302 F3600.000
G1 X115.303 Y60.300 E23.40381 F900.000
G1 X119.700 Y60.300 E23.69756
G1 X119.700 Y97.857 E26.20657
G1 X100.523 Y113.500 E27.85984
G1 X119.700 Y129.143 E29.51312
G1 X119.700 Y139.700 E30.21838
G1 X98.497 Y139.700 E31.63487
G1 X80.300 Y124.857 E33.20364
G1 X80.300 Y60.300 E37.51640
G1 X84.697 Y60.300 E37.81014
G1 X84.697 Y86.302 E39.54722
G1 X115.243 Y86.302 E41.58786
G1 X115.703 Y86.302 F3600.000
G1 X119.030 Y61.237 F3600.000
G1 X118.763 Y60.970 E41.61321 F900.000
G1 X118.002 Y60.970 E41.66424
G1 X119.030 Y61.998 E41.76175
G1 X119.030 Y62.758 E41.81278
G1 X117.242 Y60.970 E41.98246
G1 X116.481 Y60.970 E42.03349
G1 X119.030 Y63.519 E42.27533
G1 X119.030 Y64.280 E42.32636
G1 X115.973 Y61.222 E42.61642
G1 X115.973 Y61.983 E42.66745
G1 X119.030 Y65.040 E42.95751
G1 X119.030 Y65.801 E43.00854
G1 X115.973 Y62.743 E43.29860
G1 X115.973 Y63.504 E43.34963
G1 X119.030 Y66.562 E43.63969
G1 X119.030 Y67.322 E43.69072
G1 X115.973 Y64.265 E43.98078
G1 X115.973 Y65.025 E44.03181
G1 X119.030 Y68.083 E44.32187
G1 X119.030 Y68.843 E44.37290
G1 X115.973 Y65.786 E44.66296
G1 X115.973 Y66.547 E44.71399
G1 X119.030 Y69.604 E45.00405
G1 X119.030 Y70.365 E45.05508
G1 X115.973 Y67.307 E45.34514
G1 X115.973 Y68.068 E45.39617
G1 X119.030 Y71.125 E45.68623
G1 X119.030 Y71.886 E45.73726
G1 X115.973 Y68.829 E46.02732
G1 X115.973 Y69.589 E46.07835
G1 X119.030 Y72.647 E46.36841
G1 X119.030 Y73.407 E46.41944
G1 X115.973 Y70.350 E46.70950
G1 X115.973 Y71.111 E46.76053
G1 X119.030 Y74.168 E47.05059
G1 X119.030 Y74.929 E47.10162
G1 X115.973 Y71.871 E47.39168
G1 X115.973 Y72.632 E47.44271
G1 X119.030 Y75.689 E47.73277
G1 X119.030 Y76.450 E47.78380
G1 X115.973 Y73.392 E48.07386
G1 X115.973 Y74.153 E48.12489
G1 X119.030 Y77.211 E48.41495
G1 X119.030 Y77.971 E48.46597
G1 X115.973 Y74.914 E48.75604
G1 X115.973 Y75.674 E48.80706
G1 X119.030 Y78.732 E49.09713
G1 X119.030 Y79.492 E49.14815
G1 X115.973 Y76.435 E49.43822
G1 X115.973 Y77.196 E49.48924
G1 X119.030 Y80.253 E49.77931
G1 X119.030 Y81.014 E49.83033
G1 X115.973 Y77.956 E50.12040
G1 X115.973 Y78.717 E50.17142
G1 X119.030 Y81.774 E50.46149
G1 X119.030 Y82.535 E50.51251
G1 X115.973 Y79.478 E50.80258
G1 X115.973 Y80.238 E50.85360
G1 X119.030 Y83.296 E51.14367
G1 X119.030 Y84.056 E51.19469
G1 X115.973 Y80.999 E51.48476
G1 X115.973 Y81.760 E51.53578
G1 X119.030 Y84.817 E51.82585
G1 X119.030 Y85.578 E51.87687
G1 X115.973 Y82.520 E52.16693
G1 X115.973 Y83.281 E52.21796
G1 X119.030 Y86.338 E52.50802
G1 X119.030 Y87.099 E52.55905
G1 X115.973 Y84.041 E52.84911
G1 X115.973 Y84.802 E52.90014
G1 X119.030 Y87.860 E53.19020
G1 X119.030 Y88.620 E53.24123
G1 X115.973 Y85.563 E53.53129
G1 X115.973 Y86.323 E53.58232
G1 X119.030 Y89.381 E53.87238
G1 X119.030 Y90.141 E53.92341
G1 X115.861 Y86.972 E54.22412
G1 X115.100 Y86.972 E54.27515
G1 X119.030 Y90.902 E54.64802
G1 X119.030 Y91.663 E54.69905
G1 X114.339 Y86.972 E55.14408
G1 X113.579 Y86.972 E55.19511
G1 X119.030 Y92.423 E55.71231
G1 X119.030 Y93.184 E55.76334
G1 X112.818 Y86.972 E56.35270
G1 X112.057 Y86.972 E56.40373
G1 X119.030 Y93.945 E57.06525
G1 X119.030 Y94.705 E57.11628
G1 X111.297 Y86.972 E57.84997
G1 X110.536 Y86.972 E57.90100
G1 X119.030 Y95.466 E58.70685
G1 X119.030 Y96.227 E58.75788
G1 X109.775 Y86.972 E59.63589
G1 X109.015 Y86.972 E59.68692
G1 X119.030 Y96.987 E60.63710
G1 X118.948 Y97.666 E60.68295
G1 X108.254 Y86.972 E61.69749
G1 X107.493 Y86.972 E61.74852
G1 X118.529 Y98.007 E62.79549
G1 X118.110 Y98.349 E62.83176
G1 X106.733 Y86.972 E63.91114
G1 X105.972 Y86.972 E63.96217
G1 X117.691 Y98.691 E65.07398
G1 X117.272 Y99.033 E65.11024
G1 X105.212 Y86.972 E66.25447
G1 X104.451 Y86.972 E66.30550
G1 X116.853 Y99.374 E67.48215
G1 X116.435 Y99.716 E67.51841
G1 X103.690 Y86.972 E68.72748
G1 X102.930 Y86.972 E68.77851
G1 X116.016 Y100.058 E70.02000
G1 X115.597 Y100.400 E70.05626
G1 X102.169 Y86.972 E71.33017
G1 X101.408 Y86.972 E71.38120
G1 X115.178 Y100.741 E72.68753
G1 X114.759 Y101.083 E72.72379
G1 X100.648 Y86.972 E74.06254
G1 X99.887 Y86.972 E74.11357
G1 X114.340 Y101.425 E75.48473
G1 X113.921 Y101.766 E75.52100
G1 X99.126 Y86.972 E76.92459
G1 X98.366 Y86.972 E76.97562
G1 X113.502 Y102.108 E78.41162
G1 X113.083 Y102.450 E78.44789
G1 X97.605 Y86.972 E79.91632
G1 X96.845 Y86.972 E79.96734
G1 X112.664 Y102.792 E81.46819
G1 X112.245 Y103.133 E81.50446
G1 X96.084 Y86.972 E83.03772
G1 X95.323 Y86.972 E83.08875
G1 X111.826 Y103.475 E84.65444
G1 X111.408 Y103.817 E84.69071
G1 X94.563 Y86.972 E86.28881
G1 X93.802 Y86.972 E86.33984
G1 X110.989 Y104.158 E87.97037
G1 X110.570 Y104.500 E88.00663
G1 X93.041 Y86.972 E89.66958
G1 X92.281 Y86.972 E89.72061
G1 X110.151 Y104.842 E91.41597
G1 X109.732 Y105.184 E91.45224
G1 X91.520 Y86.972 E93.18003
G1 X90.759 Y86.972 E93.23105
G1 X109.313 Y105.525 E94.99126
G1 X108.894 Y105.867 E95.02753
G1 X89.999 Y86.972 E96.82015
G1 X89.238 Y86.972 E96.87118
G1 X108.475 Y106.209 E98.69623
G1 X108.056 Y106.551 E98.73250
G1 X88.477 Y86.972 E100.58996
G1 X87.717 Y86.972 E100.64099
G1 X107.637 Y106.892 E102.53088
G1 X107.218 Y107.234 E102.56714
G1 X86.956 Y86.972 E104.48945
G1 X86.196 Y86.972 E104.54048
G1 X106.799 Y107.576 E106.49520
G1 X106.381 Y107.917 E106.53147
G1 X85.435 Y86.972 E108.51862
G1 X84.674 Y86.972 E108.56964
G1 X105.962 Y108.259 E110.58921
G1 X105.543 Y108.601 E110.62548
G1 X80.970 Y84.028 E112.95674
G1 X80.970 Y83.267 E113.00777
G1 X84.027 Y86.325 E113.29783
G1 X84.027 Y85.564 E113.34886
G1 X80.970 Y82.507 E113.63892
G1 X80.970 Y81.746 E113.68995
G1 X84.027 Y84.803 E113.98001
G1 X84.027 Y84.043 E114.03104
G1 X80.970 Y80.985 E114.32110
G1 X80.970 Y80.225 E114.37213
G1 X84.027 Y83.282 E114.66219
G1 X84.027 Y82.522 E114.71322
G1 X80.970 Y79.464 E115.00328
G1 X80.970 Y78.703 E115.05431
G1 X84.027 Y81.761 E115.34437
G1 X84.027 Y81.000 E115.39540
G1 X80.970 Y77.943 E115.68546
G1 X80.970 Y77.182 E115.73649
G1 X84.027 Y80.240 E116.02655
G1 X84.027 Y79.479 E116.07758
G1 X80.970 Y76.422 E116.36764
G1 X80.970 Y75.661 E116.41867
G1 X84.027 Y78.718 E116.70873
G1 X84.027 Y77.958 E116.75976
G1 X80.970 Y74.900 E117.04982
G1 X80.970 Y74.140 E117.10085
G1 X84.027 Y77.197 E117.39091
G1 X84.027 Y76.436 E117.44194
G1 X80.970 Y73.379 E117.73200
G1 X80.970 Y72.618 E117.78303
G1 X84.027 Y75.676 E118.07309
G1 X84.027 Y74.915 E118.12411
G1 X80.970 Y71.858 E118.41418
G1 X80.970 Y71.097 E118.46520
G1 X84.027 Y74.154 E118.75527
G1 X84.027 Y73.394 E118.80629
G1 X80.970 Y70.336 E119.09636
G1 X80.970 Y69.576 E119.14738
G1 X84.027 Y72.633 E119.43745
G1 X84.027 Y71.873 E119.48847
G1 X80.970 Y68.815 E119.77854
G1 X80.970 Y68.055 E119.82956
G1 X84.027 Y71.112 E120.11963
G1 X84.027 Y70.351 E120.17065
G1 X80.970 Y67.294 E120.46071
G1 X80.970 Y66.533 E120.51174
G1 X84.027 Y69.591 E120.80180
G1 X84.027 Y68.830 E120.85283
G1 X80.970 Y65.773 E121.14289
G1 X80.970 Y65.012 E121.19392
G1 X84.027 Y68.069 E121.48398
G1 X84.027 Y67.309 E121.53501
G1 X80.970 Y64.251 E121.82507
G1 X80.970 Y63.491 E121.87610
G1 X84.027 Y66.548 E122.16616
G1 X84.027 Y65.787 E122.21719
G1 X80.970 Y62.730 E122.50725
G1 X80.970 Y61.969 E122.55828
G1 X84.027 Y65.027 E122.84834
G1 X84.027 Y64.266 E122.89937
G1 X80.970 Y61.209 E123.18943
G1 X81.491 Y60.970 E123.22793
G1 X84.027 Y63.506 E123.46849
G1 X84.027 Y62.745 E123.51952
G1 X82.252 Y60.970 E123.68792
G1 X83.013 Y60.970 E123.73895
G1 X84.027 Y61.984 E123.83519
G1 X84.027 Y61.224 E123.88622
G1 X83.773 Y60.970 E123.91030
G1 X80.970 Y84.789 F3600.000
G1 X105.124 Y108.943 E126.20182 F900.000
G1 X104.705 Y109.284 E126.23809
G1 X80.970 Y85.549 E128.48987
G1 X80.970 Y86.310 E128.54090
G1 X104.286 Y109.626 E130.75294
G1 X103.867 Y109.968 E130.78920
G1 X80.970 Y87.071 E132.96150
G1 X80.970 Y87.831 E133.01253
G1 X103.448 Y110.310 E135.14508
G1 X103.029 Y110.651 E135.18135
G1 X80.970 Y88.592 E137.27415
G1 X80.970 Y89.352 E137.32518
G1 X102.610 Y110.993 E139.37825
G1 X102.191 Y111.335 E139.41451
G1 X80.970 Y90.113 E141.42784
G1 X80.970 Y90.874 E141.47886
G1 X101.772 Y111.676 E143.45244
G1 X101.354 Y112.018 E143.48871
G1 X80.970 Y91.634 E145.42254
G1 X80.970 Y92.395 E145.47357
G1 X100.935 Y112.360 E147.36766
G1 X100.516 Y112.702 E147.40393
G1 X80.970 Y93.156 E149.25828
G1 X80.970 Y93.916 E149.30931
G1 X100.097 Y113.043 E151.12391
G1 X99.678 Y113.385 E151.16018
G1 X80.970 Y94.677 E152.93504
G1 X80.970 Y95.438 E152.98607
G1 X119.030 Y133.498 E156.59692
G1 X119.030 Y132.737 E156.64794
G1 X101.932 Y115.639 E158.27012
G1 X106.059 Y119.006 F3600.000
G1 X119.030 Y131.977 E159.50067 F900.000
G1 X119.030 Y131.216 E159.55170
G1 X110.187 Y122.373 E160.39063
G1 X114.315 Y125.741 F3600.000
G1 X119.030 Y130.455 E160.83794 F900.000
G1 X119.030 Y129.695 E160.88897
G1 X118.443 Y129.108 E160.94466
G1 X119.030 Y134.259 F3600.000
G1 X80.970 Y96.198 E164.55551 F900.000
G1 X80.970 Y96.959 E164.60653
G1 X119.030 Y135.019 E168.21738
G1 X119.030 Y135.780 E168.26841
G1 X80.970 Y97.720 E171.87926
G1 X80.970 Y98.480 E171.93029
G1 X119.030 Y136.541 E175.54114
G1 X119.030 Y137.301 E175.59216
G1 X80.970 Y99.241 E179.20301
G1 X80.970 Y100.001 E179.25404
G1 X119.030 Y138.062 E182.86489
G1 X119.030 Y138.823 E182.91592
G1 X80.970 Y100.762 E186.52677
G1 X80.970 Y101.523 E186.57779
G1 X118.477 Y139.030 E190.13618
G1 X117.717 Y139.030 E190.18721
G1 X80.970 Y102.283 E193.67343
G1 X80.970 Y103.044 E193.72446
G1 X116.956 Y139.030 E197.13852
G1 X116.195 Y139.030 E197.18955
G1 X80.970 Y103.805 E200.53145
G1 X80.970 Y104.565 E200.58247
G1 X115.435 Y139.030 E203.85221
G1 X114.674 Y139.030 E203.90324
G1 X80.970 Y105.326 E207.10081
G1 X80.970 Y106.087 E207.15184
G1 X113.913 Y139.030 E210.27724
G1 X113.153 Y139.030 E210.32827
G1 X80.970 Y106.847 E213.38152
G1 X80.970 Y107.608 E213.43254
G1 X112.392 Y139.030 E216.41363
G1 X111.631 Y139.030 E216.46465
G1 X80.970 Y108.369 E219.37357
G1 X80.970 Y109.129 E219.42460
G1 X110.871 Y139.030 E222.26135
G1 X110.110 Y139.030 E222.31238
G1 X80.970 Y109.890 E225.07697
G1 X80.970 Y110.650 E225.12800
G1 X109.350 Y139.030 E227.82043
G1 X108.589 Y139.030 E227.87146
G1 X80.970 Y111.411 E230.49172
G1 X80.970 Y112.172 E230.54275
G1 X107.828 Y139.030 E233.09085
G1 X107.068 Y139.030 E233.14188
G1 X80.970 Y112.932 E235.61782
G1 X80.970 Y113.693 E235.66884
G1 X106.307 Y139.030 E238.07262
G1 X105.546 Y139.030 E238.12365
G1 X80.970 Y114.454 E240.45526
G1 X80.970 Y115.214 E240.50629
G1 X104.786 Y139.030 E242.76574
G1 X104.025 Y139.030 E242.81676
G1 X80.970 Y115.975 E245.00405
G1 X80.970 Y116.736 E245.05508
G1 X103.264 Y139.030 E247.17020
G1 X102.504 Y139.030 E247.22123
G1 X80.970 Y117.496 E249.26419
G1 X80.970 Y118.257 E249.31521
G1 X101.743 Y139.030 E251.28601
G1 X100.982 Y139.030 E251.33704
G1 X80.970 Y119.018 E253.23567
G1 X80.970 Y119.778 E253.28670
G1 X100.222 Y139.030 E255.11317
G1 X99.461 Y139.030 E255.16419
G1 X80.970 Y120.539 E256.91850
G1 X80.970 Y121.299 E256.96953
G1 X97.864 Y138.194 E258.57235
G1 X93.737 Y134.828 F3600.000
G1 X80.970 Y122.060 E259.78363 F900.000
G1 X80.970 Y122.821 E259.83466
G1 X89.610 Y131.461 E260.65442
G1 X85.484 Y128.095 F3600.000
G1 X80.970 Y123.581 E261.08264 F900.000
G1 X80.970 Y124.342 E261.13367
G1 X81.357 Y124.729 E261.17036
G1 Z0.600 F3600.000
G1 X115.580 Y86.579 F3600.000
G1 X115.580 Y60.577 E262.52883 F3600.000
G1 X119.423 Y60.577 E262.72958
G1 X119.423 Y97.725 E264.67038
G1 X100.085 Y113.500 E265.97420
G1 X119.423 Y129.275 E267.27802
G1 X119.423 Y139.423 E267.80821
G1 X98.596 Y139.423 E268.89632
G1 X80.577 Y124.725 E270.11114
G1 X80.577 Y60.577 E273.46255
G1 X84.420 Y60.577 E273.66330
G1 X84.420 Y86.579 E275.02177
G1 X115.520 Y86.579 E276.64662
G1 X115.203 Y86.202 F3600.000
G1 X115.203 Y60.200 E277.73507 F1800.000
G1 X119.800 Y60.200 E277.92750
G1 X119.800 Y97.904 E279.50582
G1 X100.682 Y113.500 E280.53862
G1 X119.800 Y129.096 E281.57142
G1 X119.800 Y139.800 E282.01951
G1 X98.461 Y139.800 E282.91276
G1 X80.200 Y124.904 E283.89923
G1 X80.200 Y60.200 E286.60778
G1 X84.797 Y60.200 E286.80021
G1 X84.797 Y86.202 E287.88867
G1 X115.143 Y86.202 E289.15896
G1 X115.603 Y86.202 F3600.000
G1 X115.396 Y86.680 F3600.000
G1 X80.678 Y121.398 E291.72752 F1800.000
G1 X80.678 Y120.805 E291.75856
G1 X114.803 Y86.680 E294.28324
G1 X114.210 Y86.680 E294.31427
G1 X80.678 Y120.212 E296.79506
G1 X80.678 Y119.619 E296.82609
G1 X113.617 Y86.680 E299.26301
G1 X113.024 Y86.680 E299.29404
G1 X80.678 Y119.026 E301.68707
G1 X80.678 Y118.432 E301.71810
G1 X112.430 Y86.680 E304.06724
G1 X111.837 Y86.680 E304.09828
G1 X80.678 Y117.839 E306.40354
G1 X80.678 Y117.246 E306.43457
G1 X111.244 Y86.680 E308.69595
G1 X110.651 Y86.680 E308.72698
G1 X80.678 Y116.653 E310.94447
G1 X80.678 Y116.060 E310.97550
G1 X110.058 Y86.680 E313.14911
G1 X109.465 Y86.680 E313.18014
G1 X80.678 Y115.467 E315.30987
G1 X80.678 Y114.873 E315.34090
G1 X108.871 Y86.680 E317.42674
G1 X108.278 Y86.680 E317.45777
G1 X80.678 Y114.280 E319.49973
G1 X80.678 Y113.687 E319.53076
G1 X107.685 Y86.680 E321.52883
G1 X107.092 Y86.680 E321.55987
G1 X80.678 Y113.094 E323.51406
G1 X80.678 Y112.501 E323.54509
G1 X106.499 Y86.680 E325.45539
G1 X105.906 Y86.680 E325.48642
G1 X80.678 Y111.908 E327.35285
G1 X80.678 Y111.314 E327.38388
G1 X105.312 Y86.680 E329.20642
G1 X104.719 Y86.680 E329.23745
G1 X80.678 Y110.721 E331.01610
G1 X80.678 Y110.128 E331.04713
G1 X104.126 Y86.680 E332.78190
G1 X103.533 Y86.680 E332.81293
G1 X80.678 Y109.535 E334.50382
G1 X80.678 Y108.942 E334.53485
G1 X102.940 Y86.680 E336.18186
G1 X102.347 Y86.680 E336.21289
G1 X80.678 Y108.349 E337.81601
G1 X80.678 Y107.755 E337.84704
G1 X101.753 Y86.680 E339.40627
G1 X101.160 Y86.680 E339.43730
