; generated by Slic3r 1.2.9 on 2017-04-08 at 17:55:49

; external perimeters extrusion width = 0.40mm
; perimeters extrusion width = 0.48mm
; infill extrusion width = 0.48mm
; solid infill extrusion width = 0.48mm
; top infill extrusion width = 0.48mm

M107
M104 S210 ; set temperature
G28 ; home all axes
;G1 Z5 F5000 ; lift nozzle

M109 S210 ; wait for temperature to be reached
G21 ; set units to millimeters
G90 ; use absolute coordinates
M82 ; use absolute distances for extrusion
G92 E0
G1 Z0.300 F3600.000
G1 E-2.00000 F600.00000
G92 E0
G1 X76.973 Y75.739 F3600.000
G1 E2.00000 F600.00000
G1 X78.741 Y74.161 E2.15833 F1800.000
G1 X80.931 Y73.255 E2.31666
G1 X82.500 Y73.079 E2.42216
G1 X117.500 Y73.079 E4.76035
G1 X119.837 Y73.476 E4.91868
G1 X121.911 Y74.623 E5.07701 F1800.000
G1 X123.489 Y76.391 E5.23534
G1 X124.395 Y78.581 E5.39367
G1 X124.571 Y80.150 E5.49916
G1 X124.571 Y120.000 E8.16136
G1 X124.174 Y122.337 E8.31969
G1 X123.027 Y124.411 E8.47802
G1 X121.259 Y125.989 E8.63635
G1 X119.069 Y126.895 E8.79468
G1 X117.500 Y127.071 E8.90017
G1 X82.500 Y127.071 E11.23836
G1 X80.163 Y126.674 E11.39669
G1 X78.089 Y125.527 E11.55502
G1 X76.511 Y123.759 E11.71335
G1 X75.605 Y121.569 E11.87168
G1 X75.429 Y120.000 E11.97718
G1 X75.429 Y80.150 E14.63938
G1 X75.826 Y77.813 E14.79771
G1 X76.944 Y75.792 E14.95203
G1 X77.456 Y76.020 F3600.000
G1 X77.504 Y75.937 E14.95844 F1800.000
G1 X79.253 Y74.478 E15.11061
G1 X82.500 Y73.614 E15.33504
G1 X117.500 Y73.614 E17.67323
G1 X119.743 Y74.011 E17.82540
G1 X121.713 Y75.154 E17.97757 F1800.000
G1 X123.172 Y76.903 E18.12974
G1 X124.036 Y80.150 E18.35417
G1 X124.036 Y120.000 E21.01637
G1 X123.639 Y122.243 E21.16854
G1 X122.496 Y124.213 E21.32071
G1 X120.747 Y125.672 E21.47288
G1 X117.500 Y126.536 E21.69731
G1 X82.500 Y126.536 E24.03550
G1 X80.257 Y126.139 E24.18767
G1 X78.287 Y124.996 E24.33984
G1 X76.828 Y123.247 E24.49201
G1 X75.964 Y120.000 E24.71644
G1 X75.964 Y80.150 E27.37864
G1 X76.361 Y77.907 E27.53081
G1 X77.426 Y76.071 E27.67256
G1 E25.67256 F600.00000
G92 E0
G1 X116.129 Y118.629 F3600.000
G1 E2.00000 F600.00000
G1 X83.871 Y118.629 E4.15498 F1800.000
G1 X83.871 Y81.521 E6.63396
G1 X116.129 Y81.521 E8.78894
G1 X116.129 Y118.569 E11.26391
G1 X116.664 Y119.164 F3600.000
G1 X83.336 Y119.164 E13.49045 F1800.000
G1 X83.336 Y80.986 E16.04100
G1 X116.664 Y80.986 E18.26754
G1 X116.664 Y119.104 E20.81408
G1 X117.200 Y119.700 F3600.000
G1 X82.800 Y119.700 E23.11219 F900.000
G1 X82.800 Y80.450 E25.73430
G1 X117.200 Y80.450 E28.03241
G1 X117.200 Y119.640 E30.65051
G1 X116.854 Y119.500 F3600.000
G1 X84.005 Y118.227 F3600.000
G1 X84.273 Y118.495 E30.67580 F900.000
G1 X85.031 Y118.495 E30.72658
G1 X84.005 Y117.469 E30.82369
G1 X84.005 Y116.710 E30.87447
G1 X85.790 Y118.495 E31.04339
G1 X86.549 Y118.495 E31.09418
G1 X84.005 Y115.951 E31.33492
G1 X84.005 Y115.192 E31.38570
G1 X87.308 Y118.495 E31.69826
G1 X88.067 Y118.495 E31.74904
G1 X84.005 Y114.433 E32.13342
G1 X84.005 Y113.674 E32.18421
G1 X88.826 Y118.495 E32.64040
G1 X89.584 Y118.495 E32.69119
G1 X84.005 Y112.916 E33.21920
G1 X84.005 Y112.157 E33.26998
G1 X90.343 Y118.495 E33.86982
G1 X91.102 Y118.495 E33.92060
G1 X84.005 Y111.398 E34.59225
G1 X84.005 Y110.639 E34.64303
G1 X91.861 Y118.495 E35.38650
G1 X92.620 Y118.495 E35.43729
G1 X84.005 Y109.880 E36.25258
G1 X84.005 Y109.122 E36.30336
G1 X93.378 Y118.495 E37.19046
G1 X94.137 Y118.495 E37.24125
G1 X84.005 Y108.363 E38.20017
G1 X84.005 Y107.604 E38.25095
G1 X94.896 Y118.495 E39.28170
G1 X95.655 Y118.495 E39.33248
G1 X84.005 Y106.845 E40.43504
G1 X84.005 Y106.086 E40.48582
G1 X96.414 Y118.495 E41.66020
G1 X97.173 Y118.495 E41.71099
G1 X84.005 Y105.327 E42.95718
G1 X84.005 Y104.569 E43.00797
G1 X97.931 Y118.495 E44.32598
G1 X98.690 Y118.495 E44.37677
G1 X84.005 Y103.810 E45.76660
G1 X84.005 Y103.051 E45.81738
G1 X99.449 Y118.495 E47.27903
G1 X100.208 Y118.495 E47.32982
G1 X84.005 Y102.292 E48.86329
G1 X84.005 Y101.533 E48.91407
G1 X100.967 Y118.495 E50.51936
G1 X101.725 Y118.495 E50.57014
G1 X84.005 Y100.775 E52.24725
G1 X84.005 Y100.016 E52.29803
G1 X102.484 Y118.495 E54.04696
G1 X103.243 Y118.495 E54.09774
G1 X84.005 Y99.257 E55.91848
G1 X84.005 Y98.498 E55.96927
G1 X104.002 Y118.495 E57.86183
G1 X104.761 Y118.495 E57.91261
G1 X84.005 Y97.739 E59.87699
G1 X84.005 Y96.980 E59.92777
G1 X105.520 Y118.495 E61.96397
G1 X106.278 Y118.495 E62.01476
G1 X84.005 Y96.222 E64.12277
G1 X84.005 Y95.463 E64.17356
G1 X107.037 Y118.495 E66.35339
G1 X107.796 Y118.495 E66.40417
G1 X84.005 Y94.704 E68.65583
G1 X84.005 Y93.945 E68.70661
G1 X108.555 Y118.495 E71.03008
G1 X109.314 Y118.495 E71.08086
G1 X84.005 Y93.186 E73.47615
G1 X84.005 Y92.427 E73.52693
G1 X110.073 Y118.495 E75.99404
G1 X110.831 Y118.495 E76.04483
G1 X84.005 Y91.669 E78.58375
G1 X84.005 Y90.910 E78.63453
G1 X111.590 Y118.495 E81.24528
G1 X112.349 Y118.495 E81.29606
G1 X84.005 Y90.151 E83.97862
G1 X84.005 Y89.392 E84.02941
G1 X113.108 Y118.495 E86.78379
G1 X113.867 Y118.495 E86.83457
G1 X84.005 Y88.633 E89.66077
G1 X84.005 Y87.875 E89.71155
G1 X114.625 Y118.495 E92.60957
G1 X115.384 Y118.495 E92.66035
G1 X84.005 Y87.116 E95.63019
G1 X84.005 Y86.357 E95.68097
G1 X115.995 Y118.346 E98.70857
G1 X115.995 Y117.587 E98.75935
G1 X84.005 Y85.598 E101.78695
G1 X84.005 Y84.839 E101.83773
G1 X115.995 Y116.828 E104.86533
G1 X115.995 Y116.070 E104.91611
G1 X84.005 Y84.080 E107.94371
G1 X84.005 Y83.322 E107.99450
G1 X115.995 Y115.311 E111.02209
G1 X115.995 Y114.552 E111.07288
G1 X84.005 Y82.563 E114.10048
G1 X84.005 Y81.804 E114.15126
G1 X115.995 Y113.793 E117.17886
G1 X115.995 Y113.034 E117.22964
G1 X84.616 Y81.655 E120.19948
G1 X85.374 Y81.655 E120.25026
G1 X115.995 Y112.276 E123.14829
G1 X115.995 Y111.517 E123.19907
G1 X86.133 Y81.655 E126.02527
G1 X86.892 Y81.655 E126.07606
G1 X115.995 Y110.758 E128.83044
G1 X115.995 Y109.999 E128.88123
G1 X87.651 Y81.655 E131.56380
G1 X88.410 Y81.655 E131.61458
G1 X115.995 Y109.240 E134.22533
G1 X115.995 Y108.481 E134.27611
G1 X89.169 Y81.655 E136.81504
G1 X89.927 Y81.655 E136.86583
G1 X115.995 Y107.723 E139.33294
G1 X115.995 Y106.964 E139.38372
G1 X90.686 Y81.655 E141.77902
G1 X91.445 Y81.655 E141.82980
G1 X115.995 Y106.205 E144.15328
G1 X115.995 Y105.446 E144.20406
G1 X92.204 Y81.655 E146.45572
G1 X92.963 Y81.655 E146.50650
G1 X115.995 Y104.687 E148.68634
G1 X115.995 Y103.928 E148.73713
G1 X93.722 Y81.655 E150.84515
G1 X94.480 Y81.655 E150.89593
G1 X115.995 Y103.170 E152.93214
G1 X115.995 Y102.411 E152.98292
G1 X95.239 Y81.655 E154.94730
G1 X95.998 Y81.655 E154.99809
G1 X115.995 Y101.652 E156.89065
G1 X115.995 Y100.893 E156.94144
G1 X96.757 Y81.655 E158.76219
G1 X97.516 Y81.655 E158.81297
G1 X115.995 Y100.134 E160.56190
G1 X115.995 Y99.376 E160.61268
G1 X98.274 Y81.655 E162.28980
G1 X99.033 Y81.655 E162.34058
G1 X115.995 Y98.617 E163.94587
G1 X115.995 Y97.858 E163.99666
G1 X99.792 Y81.655 E165.53013
G1 X100.551 Y81.655 E165.58092
G1 X115.995 Y97.099 E167.04258
G1 X115.995 Y96.340 E167.09336
G1 X101.310 Y81.655 E168.48320
G1 X102.069 Y81.655 E168.53398
G1 X115.995 Y95.581 E169.85200
G1 X115.995 Y94.823 E169.90279
G1 X102.827 Y81.655 E171.14899
G1 X103.586 Y81.655 E171.19977
G1 X115.995 Y94.064 E172.37416
G1 X115.995 Y93.305 E172.42494
G1 X104.345 Y81.655 E173.52751
G1 X105.104 Y81.655 E173.57829
G1 X115.995 Y92.546 E174.60904
G1 X115.995 Y91.787 E174.65982
G1 X105.863 Y81.655 E175.61875
G1 X106.621 Y81.655 E175.66954
G1 X115.995 Y91.029 E176.55665
G1 X115.995 Y90.270 E176.60743
G1 X107.380 Y81.655 E177.42272
G1 X108.139 Y81.655 E177.47351
G1 X115.995 Y89.511 E178.21698
G1 X115.995 Y88.752 E178.26777
G1 X108.898 Y81.655 E178.93942
G1 X109.657 Y81.655 E178.99021
G1 X115.995 Y87.993 E179.59005
G1 X115.995 Y87.234 E179.64083
G1 X110.416 Y81.655 E180.16885
G1 X111.174 Y81.655 E180.21963
G1 X115.995 Y86.476 E180.67584
G1 X115.995 Y85.717 E180.72662
G1 X111.933 Y81.655 E181.11100
G1 X112.692 Y81.655 E181.16179
G1 X115.995 Y84.958 E181.47435
G1 X115.995 Y84.199 E181.52514
G1 X113.451 Y81.655 E181.76588
G1 X114.210 Y81.655 E181.81667
G1 X115.995 Y83.440 E181.98560
G1 X115.995 Y82.681 E182.03638
G1 X114.969 Y81.655 E182.13349
G1 X115.727 Y81.655 E182.18427
G1 X115.995 Y81.923 E182.20957
G1 Z0.600 F3600.000
G1 E180.20957 F600.00000
G92 E0
G1 X116.504 Y119.004 F3600.000
G1 E2.00000 F600.00000
G1 X83.496 Y119.004 E3.72449 F3600.000
G1 X83.496 Y81.446 E5.68669
G1 X116.504 Y81.446 E7.41117
G1 X116.504 Y118.944 E9.37024
G1 X116.923 Y119.423 F3600.000
G1 X83.077 Y119.423 E11.13849 F3600.000
G1 X83.077 Y81.027 E13.14446
G1 X116.923 Y81.027 E14.91272
G1 X116.923 Y119.363 E16.91555
G1 X117.300 Y119.800 F3600.000
G1 X82.700 Y119.800 E18.36392 F1800.000
G1 X82.700 Y80.650 E20.00275
G1 X117.300 Y80.650 E21.45112
G1 X117.300 Y119.740 E23.08744
G1 X116.954 Y119.600 F3600.000
G1 X116.186 Y118.903 F3600.000
G1 X116.403 Y118.686 E23.10362 F1800.000
G1 X116.403 Y118.090 E23.13494
G1 X115.590 Y118.903 E23.19543
G1 X114.994 Y118.903 E23.22675
G1 X116.403 Y117.494 E23.33153
G1 X116.403 Y116.898 E23.36286
G1 X114.398 Y118.903 E23.51194
G1 X113.802 Y118.903 E23.54326
G1 X116.403 Y116.302 E23.73664
G1 X116.403 Y115.706 E23.76797
G1 X113.206 Y118.903 E24.00564
G1 X112.610 Y118.903 E24.03697
G1 X116.403 Y115.110 E24.31895
G1 X116.403 Y114.514 E24.35027
G1 X112.014 Y118.903 E24.67655
G1 X111.418 Y118.903 E24.70787
G1 X116.403 Y113.918 E25.07845
G1 X116.403 Y113.322 E25.10977
G1 X110.822 Y118.903 E25.52465
G1 X110.226 Y118.903 E25.55597
G1 X116.403 Y112.726 E26.01515
G1 X116.403 Y112.130 E26.04647
G1 X109.630 Y118.903 E26.54995
G1 X109.034 Y118.903 E26.58127
G1 X116.403 Y111.534 E27.12905
G1 X116.403 Y110.938 E27.16037
G1 X108.438 Y118.903 E27.75244
G1 X107.842 Y118.903 E27.78377
G1 X116.403 Y110.342 E28.42014
G1 X116.403 Y109.746 E28.45146
G1 X107.246 Y118.903 E29.13213
G1 X106.650 Y118.903 E29.16346
G1 X116.403 Y109.150 E29.88843
G1 X116.403 Y108.554 E29.91975
G1 X106.054 Y118.903 E30.68902
G1 X105.458 Y118.903 E30.72035
G1 X116.403 Y107.958 E31.53391
G1 X116.403 Y107.362 E31.56524
G1 X104.862 Y118.903 E32.42311
G1 X104.266 Y118.903 E32.45443
G1 X116.403 Y106.766 E33.35660
G1 X116.403 Y106.170 E33.38792
G1 X103.670 Y118.903 E34.33439
G1 X103.074 Y118.903 E34.36571
G1 X116.403 Y105.574 E35.35648
G1 X116.403 Y104.978 E35.38780
G1 X102.478 Y118.903 E36.42287
G1 X101.882 Y118.903 E36.45419
G1 X116.403 Y104.382 E37.53355
G1 X116.403 Y103.786 E37.56488
G1 X101.286 Y118.903 E38.68854
G1 X100.691 Y118.903 E38.71986
G1 X116.403 Y103.191 E39.88783
G1 X116.403 Y102.595 E39.91915
G1 X100.095 Y118.903 E41.13141
G1 X99.499 Y118.903 E41.16274
G1 X116.403 Y101.999 E42.41930
G1 X116.403 Y101.403 E42.45062
G1 X98.903 Y118.903 E43.75148
G1 X98.307 Y118.903 E43.78280
G1 X116.403 Y100.807 E45.12796
G1 X116.403 Y100.211 E45.15929
G1 X97.711 Y118.903 E46.54874
G1 X97.115 Y118.903 E46.58007
G1 X116.403 Y99.615 E48.01383
G1 X116.403 Y99.019 E48.04515
G1 X96.519 Y118.903 E49.52321
G1 X95.923 Y118.903 E49.55453
G1 X116.403 Y98.423 E51.07689
G1 X116.403 Y97.827 E51.10821
G1 X95.327 Y118.903 E52.67486
G1 X94.731 Y118.903 E52.70619
G1 X116.403 Y97.231 E54.31714
G1 X116.403 Y96.635 E54.34847
G1 X94.135 Y118.903 E56.00372
G1 X93.539 Y118.903 E56.03504
G1 X116.403 Y96.039 E57.73460
G1 X116.403 Y95.443 E57.76592
G1 X92.943 Y118.903 E59.50977
G1 X92.347 Y118.903 E59.54110
G1 X116.403 Y94.847 E61.32925
G1 X116.403 Y94.251 E61.36057
G1 X91.751 Y118.903 E63.19302
G1 X91.155 Y118.903 E63.22434
G1 X116.403 Y93.655 E65.10109
G1 X116.403 Y93.059 E65.13242
G1 X90.559 Y118.903 E67.05346
G1 X89.963 Y118.903 E67.08479
G1 X116.403 Y92.463 E69.05014
G1 X116.403 Y91.867 E69.08146
G1 X89.367 Y118.903 E71.09111
G1 X88.771 Y118.903 E71.12243
G1 X116.403 Y91.271 E73.17638
G1 X116.403 Y90.675 E73.20770
G1 X88.175 Y118.903 E75.30594
G1 X87.579 Y118.903 E75.33727
G1 X116.403 Y90.079 E77.47981
G1 X116.403 Y89.483 E77.51114
G1 X86.983 Y118.903 E79.69798
G1 X86.387 Y118.903 E79.72930
G1 X116.403 Y88.887 E81.96045
G1 X116.403 Y88.291 E81.99177
G1 X85.791 Y118.903 E84.26721
G1 X85.195 Y118.903 E84.29854
G1 X116.403 Y87.695 E86.61828
G1 X116.403 Y87.099 E86.64960
G1 X84.599 Y118.903 E89.01364
G1 X84.004 Y118.903 E89.04496
G1 X116.403 Y86.504 E91.45330
G1 X116.403 Y85.908 E91.48463
G1 X83.597 Y118.714 E93.92321
G1 X83.597 Y118.118 E93.95453
G1 X116.403 Y85.312 E96.39311
G1 X116.403 Y84.716 E96.42444
G1 X83.597 Y117.522 E98.86302
G1 X83.597 Y116.926 E98.89434
G1 X116.403 Y84.120 E101.33292
G1 X116.403 Y83.524 E101.36424
G1 X83.597 Y116.330 E103.80282
G1 X83.597 Y115.734 E103.83415
G1 X116.403 Y82.928 E106.27273
G1 X116.403 Y82.332 E106.30405
G1 X83.597 Y115.138 E108.74263
G1 X83.597 Y114.542 E108.77396
G1 X116.403 Y81.736 E111.21254
G1 X115.996 Y81.547 E111.23612
G1 X83.597 Y113.946 E113.64446
G1 X83.597 Y113.351 E113.67578
G1 X115.401 Y81.547 E116.03982
G1 X114.805 Y81.547 E116.07114
G1 X83.597 Y112.755 E118.39088
G1 X83.597 Y112.159 E118.42221
G1 X114.209 Y81.547 E120.69765
G1 X113.613 Y81.547 E120.72897
G1 X83.597 Y111.563 E122.96011
G1 X83.597 Y110.967 E122.99144
G1 X113.017 Y81.547 E125.17828
G1 X112.421 Y81.547 E125.20960
G1 X83.597 Y110.371 E127.35215
G1 X83.597 Y109.775 E127.38347
G1 X111.825 Y81.547 E129.48172
G1 X111.229 Y81.547 E129.51304
G1 X83.597 Y109.179 E131.56699
G1 X83.597 Y108.583 E131.59831
G1 X110.633 Y81.547 E133.60796
G1 X110.037 Y81.547 E133.63928
G1 X83.597 Y107.987 E135.60463
G1 X83.597 Y107.391 E135.63595
G1 X109.441 Y81.547 E137.55700
G1 X108.845 Y81.547 E137.58832
G1 X83.597 Y106.795 E139.46507
G1 X83.597 Y106.199 E139.49640
G1 X108.249 Y81.547 E141.32884
G1 X107.653 Y81.547 E141.36017
G1 X83.597 Y105.603 E143.14832
G1 X83.597 Y105.007 E143.17964
G1 X107.057 Y81.547 E144.92349
G1 X106.461 Y81.547 E144.95482
G1 X83.597 Y104.411 E146.65437
G1 X83.597 Y103.815 E146.68569
G1 X105.865 Y81.547 E148.34095
G1 X105.269 Y81.547 E148.37227
G1 X83.597 Y103.219 E149.98322
G1 X83.597 Y102.623 E150.01455
G1 X104.673 Y81.547 E151.58120
G1 X104.077 Y81.547 E151.61253
G1 X83.597 Y102.027 E153.13488
G1 X83.597 Y101.431 E153.16621
G1 X103.481 Y81.547 E154.64426
G1 X102.885 Y81.547 E154.67559
G1 X83.597 Y100.835 E156.10934
G1 X83.597 Y100.239 E156.14067
G1 X102.289 Y81.547 E157.53012
G1 X101.693 Y81.547 E157.56145
G1 X83.597 Y99.643 E158.90661
G1 X83.597 Y99.047 E158.93793
G1 X101.097 Y81.547 E160.23879
G1 X100.501 Y81.547 E160.27011
G1 X83.597 Y98.451 E161.52667
G1 X83.597 Y97.855 E161.55800
G1 X99.905 Y81.547 E162.77026
G1 X99.309 Y81.547 E162.80158
G1 X83.597 Y97.259 E163.96954
G1 X83.597 Y96.664 E164.00087
G1 X98.714 Y81.547 E165.12453
G1 X98.118 Y81.547 E165.15585
G1 X83.597 Y96.068 E166.23522
G1 X83.597 Y95.472 E166.26654
G1 X97.522 Y81.547 E167.30161
G1 X96.926 Y81.547 E167.33293
G1 X83.597 Y94.876 E168.32369
G1 X83.597 Y94.280 E168.35502
G1 X96.330 Y81.547 E169.30148
G1 X95.734 Y81.547 E169.33281
G1 X83.597 Y93.684 E170.23497
G1 X83.597 Y93.088 E170.26630
G1 X95.138 Y81.547 E171.12417
G1 X94.542 Y81.547 E171.15549
G1 X83.597 Y92.492 E171.96906
G1 X83.597 Y91.896 E172.00038
G1 X93.946 Y81.547 E172.76965
G1 X93.350 Y81.547 E172.80098
G1 X83.597 Y91.300 E173.52594
G1 X83.597 Y90.704 E173.55727
G1 X92.754 Y81.547 E174.23794
G1 X92.158 Y81.547 E174.26926
G1 X83.597 Y90.108 E174.90564
G1 X83.597 Y89.512 E174.93696
G1 X91.562 Y81.547 E175.52903
G1 X90.966 Y81.547 E175.56036
G1 X83.597 Y88.916 E176.10813
G1 X83.597 Y88.320 E176.13945
G1 X90.370 Y81.547 E176.64293
G1 X89.774 Y81.547 E176.67425
G1 X83.597 Y87.724 E177.13343
G1 X83.597 Y87.128 E177.16475
G1 X89.178 Y81.547 E177.57962
G1 X88.582 Y81.547 E177.61095
G1 X83.597 Y86.532 E177.98153
G1 X83.597 Y85.936 E178.01285
G1 X87.986 Y81.547 E178.33913
G1 X87.390 Y81.547 E178.37045
G1 X83.597 Y85.340 E178.65243
G1 X83.597 Y84.744 E178.68375
G1 X86.794 Y81.547 E178.92143
G1 X86.198 Y81.547 E178.95276
G1 X83.597 Y84.148 E179.14614
G1 X83.597 Y83.552 E179.17746
G1 X85.602 Y81.547 E179.32654
G1 X85.006 Y81.547 E179.35786
G1 X83.597 Y82.956 E179.46265
G1 X83.597 Y82.360 E179.49397
G1 X84.410 Y81.547 E179.55445
G1 X83.814 Y81.547 E179.58578
G1 X83.597 Y81.764 E179.60196
G1 Z0.900 F3600.000
G1 X88.504 Y117.172 F3600.000
