; generated by Slic3r 1.2.9 on 2017-04-08 at 21:57:07

; external perimeters extrusion width = 0.40mm
; perimeters extrusion width = 0.48mm
; infill extrusion width = 0.48mm
; solid infill extrusion width = 0.48mm
; top infill extrusion width = 0.48mm

M107
M104 S210 ; set temperature
G28 ; home all axes
;G1 Z5 F5000 ; lift nozzle

M109 S210 ; wait for temperature to be reached
G21 ; set units to millimeters
G90 ; use absolute coordinates
M82 ; use absolute distances for extrusion
G92 E0
G1 Z0.300 F3600.000
G1 E-2.00000 F600.00000
G92 E0
G1 X56.473 Y52.739 F3600.000
G1 E2.00000 F600.00000
G1 X58.241 Y51.161 E2.15833 F1800.000
G1 X60.431 Y50.255 E2.31666
G1 X62.000 Y50.079 E2.42216
G1 X138.000 Y50.079 E7.49937
G1 X140.337 Y50.476 E7.65770
G1 X142.411 Y51.623 E7.81603 F1800.000
G1 X143.989 Y53.391 E7.97436
G1 X144.895 Y55.581 E8.13269
G1 X145.071 Y57.150 E8.23818
G1 X145.071 Y143.000 E13.97343
G1 X144.674 Y145.337 E14.13176
G1 X143.527 Y147.411 E14.29009
G1 X141.759 Y148.989 E14.44842
G1 X139.569 Y149.895 E14.60675
G1 X138.000 Y150.071 E14.71225
G1 X62.000 Y150.071 E19.78946
G1 X59.663 Y149.674 E19.94779
G1 X57.589 Y148.527 E20.10612
G1 X56.011 Y146.759 E20.26445
G1 X55.105 Y144.569 E20.42278
G1 X54.929 Y143.000 E20.52827
G1 X54.929 Y57.150 E26.26352
G1 X55.326 Y54.813 E26.42185
G1 X56.444 Y52.792 E26.57617
G1 X56.956 Y53.020 F3600.000
G1 X57.004 Y52.937 E26.58258 F1800.000
G1 X58.753 Y51.478 E26.73475
G1 X62.000 Y50.614 E26.95918
G1 X138.000 Y50.614 E32.03639
G1 X140.243 Y51.011 E32.18856
G1 X142.213 Y52.154 E32.34073 F1800.000
G1 X143.672 Y53.903 E32.49290
G1 X144.536 Y57.150 E32.71733
G1 X144.536 Y143.000 E38.45258
G1 X144.139 Y145.243 E38.60475
G1 X142.996 Y147.213 E38.75692
G1 X141.247 Y148.672 E38.90909
G1 X138.000 Y149.536 E39.13352
G1 X62.000 Y149.536 E44.21073
G1 X59.757 Y149.139 E44.36290
G1 X57.787 Y147.996 E44.51507
G1 X56.328 Y146.247 E44.66725
G1 X55.464 Y143.000 E44.89168
G1 X55.464 Y57.150 E50.62692
G1 X55.861 Y54.907 E50.77909
G1 X56.926 Y53.071 E50.92084
G1 E48.92084 F600.00000
G92 E0
G1 X136.629 Y141.629 F3600.000
G1 E2.00000 F600.00000
G1 X104.371 Y141.629 E4.15498 F1800.000
G1 X104.371 Y104.521 E6.63396
G1 X136.629 Y104.521 E8.78894
G1 X136.629 Y141.569 E11.26391
G1 X137.164 Y142.164 F3600.000
G1 X103.836 Y142.164 E13.49045 F1800.000
G1 X103.836 Y103.986 E16.04100
G1 X137.164 Y103.986 E18.26754
G1 X137.164 Y142.104 E20.81408
G1 X137.700 Y142.700 F3600.000
G1 X103.300 Y142.700 E23.11219 F900.000
G1 X103.300 Y103.450 E25.73430
G1 X137.700 Y103.450 E28.03241
G1 X137.700 Y142.640 E30.65051
G1 X137.354 Y142.500 F3600.000
G1 X104.505 Y141.227 F3600.000
G1 X104.773 Y141.495 E30.67580 F900.000
G1 X105.531 Y141.495 E30.72658
G1 X104.505 Y140.469 E30.82369
G1 X104.505 Y139.710 E30.87447
G1 X106.290 Y141.495 E31.04339
G1 X107.049 Y141.495 E31.09418
G1 X104.505 Y138.951 E31.33492
G1 X104.505 Y138.192 E31.38570
G1 X107.808 Y141.495 E31.69826
G1 X108.567 Y141.495 E31.74904
G1 X104.505 Y137.433 E32.13342
G1 X104.505 Y136.674 E32.18421
G1 X109.326 Y141.495 E32.64040
G1 X110.084 Y141.495 E32.69119
G1 X104.505 Y135.916 E33.21920
G1 X104.505 Y135.157 E33.26998
G1 X110.843 Y141.495 E33.86982
G1 X111.602 Y141.495 E33.92060
G1 X104.505 Y134.398 E34.59225
G1 X104.505 Y133.639 E34.64303
G1 X112.361 Y141.495 E35.38650
G1 X113.120 Y141.495 E35.43729
G1 X104.505 Y132.880 E36.25258
G1 X104.505 Y132.122 E36.30336
G1 X113.878 Y141.495 E37.19046
G1 X114.637 Y141.495 E37.24125
G1 X104.505 Y131.363 E38.20017
G1 X104.505 Y130.604 E38.25095
G1 X115.396 Y141.495 E39.28170
G1 X116.155 Y141.495 E39.33248
G1 X104.505 Y129.845 E40.43504
G1 X104.505 Y129.086 E40.48582
G1 X116.914 Y141.495 E41.66020
G1 X117.673 Y141.495 E41.71099
G1 X104.505 Y128.327 E42.95718
G1 X104.505 Y127.569 E43.00797
G1 X118.431 Y141.495 E44.32598
G1 X119.190 Y141.495 E44.37677
G1 X104.505 Y126.810 E45.76660
G1 X104.505 Y126.051 E45.81738
G1 X119.949 Y141.495 E47.27903
G1 X120.708 Y141.495 E47.32982
G1 X104.505 Y125.292 E48.86329
G1 X104.505 Y124.533 E48.91407
G1 X121.467 Y141.495 E50.51936
G1 X122.225 Y141.495 E50.57014
G1 X104.505 Y123.775 E52.24725
G1 X104.505 Y123.016 E52.29803
G1 X122.984 Y141.495 E54.04696
G1 X123.743 Y141.495 E54.09774
G1 X104.505 Y122.257 E55.91848
G1 X104.505 Y121.498 E55.96927
G1 X124.502 Y141.495 E57.86183
G1 X125.261 Y141.495 E57.91261
G1 X104.505 Y120.739 E59.87699
G1 X104.505 Y119.980 E59.92777
G1 X126.020 Y141.495 E61.96397
G1 X126.778 Y141.495 E62.01476
G1 X104.505 Y119.222 E64.12277
G1 X104.505 Y118.463 E64.17356
G1 X127.537 Y141.495 E66.35339
G1 X128.296 Y141.495 E66.40417
G1 X104.505 Y117.704 E68.65583
G1 X104.505 Y116.945 E68.70661
G1 X129.055 Y141.495 E71.03008
G1 X129.814 Y141.495 E71.08086
G1 X104.505 Y116.186 E73.47615
G1 X104.505 Y115.427 E73.52693
G1 X130.573 Y141.495 E75.99404
G1 X131.331 Y141.495 E76.04483
G1 X104.505 Y114.669 E78.58375
G1 X104.505 Y113.910 E78.63453
G1 X132.090 Y141.495 E81.24528
G1 X132.849 Y141.495 E81.29606
G1 X104.505 Y113.151 E83.97862
G1 X104.505 Y112.392 E84.02941
G1 X133.608 Y141.495 E86.78379
G1 X134.367 Y141.495 E86.83457
G1 X104.505 Y111.633 E89.66077
G1 X104.505 Y110.875 E89.71155
G1 X135.125 Y141.495 E92.60957
G1 X135.884 Y141.495 E92.66035
G1 X104.505 Y110.116 E95.63019
G1 X104.505 Y109.357 E95.68097
G1 X136.495 Y141.346 E98.70857
G1 X136.495 Y140.587 E98.75935
G1 X104.505 Y108.598 E101.78695
G1 X104.505 Y107.839 E101.83773
G1 X136.495 Y139.828 E104.86533
G1 X136.495 Y139.070 E104.91611
G1 X104.505 Y107.080 E107.94371
G1 X104.505 Y106.322 E107.99450
G1 X136.495 Y138.311 E111.02209
G1 X136.495 Y137.552 E111.07288
G1 X104.505 Y105.563 E114.10048
G1 X104.505 Y104.804 E114.15126
G1 X136.495 Y136.793 E117.17886
G1 X136.495 Y136.034 E117.22964
G1 X105.116 Y104.655 E120.19948
G1 X105.874 Y104.655 E120.25026
G1 X136.495 Y135.276 E123.14829
G1 X136.495 Y134.517 E123.19907
G1 X106.633 Y104.655 E126.02527
G1 X107.392 Y104.655 E126.07606
G1 X136.495 Y133.758 E128.83044
G1 X136.495 Y132.999 E128.88123
G1 X108.151 Y104.655 E131.56380
G1 X108.910 Y104.655 E131.61458
G1 X136.495 Y132.240 E134.22533
G1 X136.495 Y131.481 E134.27611
G1 X109.669 Y104.655 E136.81504
G1 X110.427 Y104.655 E136.86583
G1 X136.495 Y130.723 E139.33294
G1 X136.495 Y129.964 E139.38372
G1 X111.186 Y104.655 E141.77902
G1 X111.945 Y104.655 E141.82980
G1 X136.495 Y129.205 E144.15328
G1 X136.495 Y128.446 E144.20406
G1 X112.704 Y104.655 E146.45572
G1 X113.463 Y104.655 E146.50650
G1 X136.495 Y127.687 E148.68634
G1 X136.495 Y126.928 E148.73713
G1 X114.222 Y104.655 E150.84515
G1 X114.980 Y104.655 E150.89593
G1 X136.495 Y126.170 E152.93214
G1 X136.495 Y125.411 E152.98292
G1 X115.739 Y104.655 E154.94730
G1 X116.498 Y104.655 E154.99809
G1 X136.495 Y124.652 E156.89065
G1 X136.495 Y123.893 E156.94144
G1 X117.257 Y104.655 E158.76219
G1 X118.016 Y104.655 E158.81297
G1 X136.495 Y123.134 E160.56190
G1 X136.495 Y122.376 E160.61268
G1 X118.774 Y104.655 E162.28980
G1 X119.533 Y104.655 E162.34058
G1 X136.495 Y121.617 E163.94587
G1 X136.495 Y120.858 E163.99666
G1 X120.292 Y104.655 E165.53013
G1 X121.051 Y104.655 E165.58092
G1 X136.495 Y120.099 E167.04258
G1 X136.495 Y119.340 E167.09336
G1 X121.810 Y104.655 E168.48320
G1 X122.569 Y104.655 E168.53398
G1 X136.495 Y118.581 E169.85200
G1 X136.495 Y117.823 E169.90279
G1 X123.327 Y104.655 E171.14899
G1 X124.086 Y104.655 E171.19977
G1 X136.495 Y117.064 E172.37416
G1 X136.495 Y116.305 E172.42494
G1 X124.845 Y104.655 E173.52751
G1 X125.604 Y104.655 E173.57829
G1 X136.495 Y115.546 E174.60904
G1 X136.495 Y114.787 E174.65982
G1 X126.363 Y104.655 E175.61875
G1 X127.121 Y104.655 E175.66954
G1 X136.495 Y114.029 E176.55665
G1 X136.495 Y113.270 E176.60743
G1 X127.880 Y104.655 E177.42272
G1 X128.639 Y104.655 E177.47351
G1 X136.495 Y112.511 E178.21698
G1 X136.495 Y111.752 E178.26777
G1 X129.398 Y104.655 E178.93942
G1 X130.157 Y104.655 E178.99021
G1 X136.495 Y110.993 E179.59005
G1 X136.495 Y110.234 E179.64083
G1 X130.916 Y104.655 E180.16885
G1 X131.674 Y104.655 E180.21963
G1 X136.495 Y109.476 E180.67584
G1 X136.495 Y108.717 E180.72662
G1 X132.433 Y104.655 E181.11100
G1 X133.192 Y104.655 E181.16179
G1 X136.495 Y107.958 E181.47435
G1 X136.495 Y107.199 E181.52514
G1 X133.951 Y104.655 E181.76588
G1 X134.710 Y104.655 E181.81667
G1 X136.495 Y106.440 E181.98560
G1 X136.495 Y105.681 E182.03638
G1 X135.469 Y104.655 E182.13349
G1 X136.227 Y104.655 E182.18427
G1 X136.495 Y104.923 E182.20957
G1 E180.20957 F600.00000
G92 E0
G1 X95.629 Y141.629 F3600.000
G1 E2.00000 F600.00000
G1 X63.371 Y141.629 E4.15498 F1800.000
G1 X63.371 Y104.521 E6.63396
G1 X95.629 Y104.521 E8.78894
G1 X95.629 Y141.569 E11.26391
G1 X96.164 Y142.164 F3600.000
G1 X62.836 Y142.164 E13.49045 F1800.000
G1 X62.836 Y103.986 E16.04100
G1 X96.164 Y103.986 E18.26754
G1 X96.164 Y142.104 E20.81408
G1 X96.700 Y142.700 F3600.000
G1 X62.300 Y142.700 E23.11219 F900.000
G1 X62.300 Y103.450 E25.73430
G1 X96.700 Y103.450 E28.03241
G1 X96.700 Y142.640 E30.65051
G1 X96.354 Y142.500 F3600.000
G1 X63.505 Y141.227 F3600.000
G1 X63.773 Y141.495 E30.67580 F900.000
G1 X64.531 Y141.495 E30.72658
G1 X63.505 Y140.469 E30.82369
G1 X63.505 Y139.710 E30.87447
G1 X65.290 Y141.495 E31.04339
G1 X66.049 Y141.495 E31.09418
G1 X63.505 Y138.951 E31.33492
G1 X63.505 Y138.192 E31.38570
G1 X66.808 Y141.495 E31.69826
G1 X67.567 Y141.495 E31.74904
G1 X63.505 Y137.433 E32.13342
G1 X63.505 Y136.674 E32.18421
G1 X68.326 Y141.495 E32.64040
G1 X69.084 Y141.495 E32.69119
G1 X63.505 Y135.916 E33.21920
G1 X63.505 Y135.157 E33.26998
G1 X69.843 Y141.495 E33.86982
G1 X70.602 Y141.495 E33.92060
G1 X63.505 Y134.398 E34.59225
G1 X63.505 Y133.639 E34.64303
G1 X71.361 Y141.495 E35.38650
G1 X72.120 Y141.495 E35.43729
G1 X63.505 Y132.880 E36.25258
G1 X63.505 Y132.122 E36.30336
G1 X72.878 Y141.495 E37.19046
G1 X73.637 Y141.495 E37.24125
G1 X63.505 Y131.363 E38.20017
G1 X63.505 Y130.604 E38.25095
G1 X74.396 Y141.495 E39.28170
G1 X75.155 Y141.495 E39.33248
G1 X63.505 Y129.845 E40.43504
G1 X63.505 Y129.086 E40.48582
G1 X75.914 Y141.495 E41.66020
G1 X76.673 Y141.495 E41.71099
G1 X63.505 Y128.327 E42.95718
G1 X63.505 Y127.569 E43.00797
G1 X77.431 Y141.495 E44.32598
G1 X78.190 Y141.495 E44.37677
G1 X63.505 Y126.810 E45.76660
G1 X63.505 Y126.051 E45.81738
G1 X78.949 Y141.495 E47.27903
G1 X79.708 Y141.495 E47.32982
G1 X63.505 Y125.292 E48.86329
G1 X63.505 Y124.533 E48.91407
G1 X80.467 Y141.495 E50.51936
G1 X81.225 Y141.495 E50.57014
G1 X63.505 Y123.775 E52.24725
G1 X63.505 Y123.016 E52.29803
G1 X81.984 Y141.495 E54.04696
G1 X82.743 Y141.495 E54.09774
G1 X63.505 Y122.257 E55.91848
G1 X63.505 Y121.498 E55.96927
G1 X83.502 Y141.495 E57.86183
G1 X84.261 Y141.495 E57.91261
G1 X63.505 Y120.739 E59.87699
G1 X63.505 Y119.980 E59.92777
G1 X85.020 Y141.495 E61.96397
G1 X85.778 Y141.495 E62.01476
G1 X63.505 Y119.222 E64.12277
G1 X63.505 Y118.463 E64.17356
G1 X86.537 Y141.495 E66.35339
G1 X87.296 Y141.495 E66.40417
G1 X63.505 Y117.704 E68.65583
G1 X63.505 Y116.945 E68.70661
G1 X88.055 Y141.495 E71.03008
G1 X88.814 Y141.495 E71.08086
G1 X63.505 Y116.186 E73.47615
G1 X63.505 Y115.427 E73.52693
G1 X89.573 Y141.495 E75.99404
G1 X90.331 Y141.495 E76.04483
G1 X63.505 Y114.669 E78.58375
G1 X63.505 Y113.910 E78.63453
G1 X91.090 Y141.495 E81.24528
G1 X91.849 Y141.495 E81.29606
G1 X63.505 Y113.151 E83.97862
G1 X63.505 Y112.392 E84.02941
G1 X92.608 Y141.495 E86.78379
G1 X93.367 Y141.495 E86.83457
G1 X63.505 Y111.633 E89.66077
G1 X63.505 Y110.875 E89.71155
G1 X94.125 Y141.495 E92.60957
G1 X94.884 Y141.495 E92.66035
G1 X63.505 Y110.116 E95.63019
G1 X63.505 Y109.357 E95.68097
G1 X95.495 Y141.346 E98.70857
G1 X95.495 Y140.587 E98.75935
G1 X63.505 Y108.598 E101.78695
G1 X63.505 Y107.839 E101.83773
G1 X95.495 Y139.828 E104.86533
G1 X95.495 Y139.070 E104.91611
G1 X63.505 Y107.080 E107.94371
G1 X63.505 Y106.322 E107.99450
G1 X95.495 Y138.311 E111.02209
G1 X95.495 Y137.552 E111.07288
G1 X63.505 Y105.563 E114.10048
G1 X63.505 Y104.804 E114.15126
G1 X95.495 Y136.793 E117.17886
G1 X95.495 Y136.034 E117.22964
G1 X64.116 Y104.655 E120.19948
G1 X64.874 Y104.655 E120.25026
G1 X95.495 Y135.276 E123.14829
G1 X95.495 Y134.517 E123.19907
G1 X65.633 Y104.655 E126.02527
G1 X66.392 Y104.655 E126.07606
G1 X95.495 Y133.758 E128.83044
G1 X95.495 Y132.999 E128.88123
G1 X67.151 Y104.655 E131.56380
G1 X67.910 Y104.655 E131.61458
G1 X95.495 Y132.240 E134.22533
G1 X95.495 Y131.481 E134.27611
G1 X68.669 Y104.655 E136.81504
G1 X69.427 Y104.655 E136.86583
G1 X95.495 Y130.723 E139.33294
G1 X95.495 Y129.964 E139.38372
G1 X70.186 Y104.655 E141.77902
G1 X70.945 Y104.655 E141.82980
G1 X95.495 Y129.205 E144.15328
G1 X95.495 Y128.446 E144.20406
G1 X71.704 Y104.655 E146.45572
G1 X72.463 Y104.655 E146.50650
G1 X95.495 Y127.687 E148.68634
G1 X95.495 Y126.928 E148.73713
G1 X73.222 Y104.655 E150.84515
G1 X73.980 Y104.655 E150.89593
G1 X95.495 Y126.170 E152.93214
G1 X95.495 Y125.411 E152.98292
G1 X74.739 Y104.655 E154.94730
G1 X75.498 Y104.655 E154.99809
G1 X95.495 Y124.652 E156.89065
G1 X95.495 Y123.893 E156.94144
G1 X76.257 Y104.655 E158.76219
G1 X77.016 Y104.655 E158.81297
G1 X95.495 Y123.134 E160.56190
G1 X95.495 Y122.376 E160.61268
G1 X77.774 Y104.655 E162.28980
G1 X78.533 Y104.655 E162.34058
G1 X95.495 Y121.617 E163.94587
G1 X95.495 Y120.858 E163.99666
G1 X79.292 Y104.655 E165.53013
G1 X80.051 Y104.655 E165.58092
G1 X95.495 Y120.099 E167.04258
G1 X95.495 Y119.340 E167.09336
G1 X80.810 Y104.655 E168.48320
G1 X81.569 Y104.655 E168.53398
G1 X95.495 Y118.581 E169.85200
G1 X95.495 Y117.823 E169.90279
G1 X82.327 Y104.655 E171.14899
G1 X83.086 Y104.655 E171.19977
G1 X95.495 Y117.064 E172.37416
G1 X95.495 Y116.305 E172.42494
G1 X83.845 Y104.655 E173.52751
G1 X84.604 Y104.655 E173.57829
G1 X95.495 Y115.546 E174.60904
G1 X95.495 Y114.787 E174.65982
G1 X85.363 Y104.655 E175.61875
G1 X86.121 Y104.655 E175.66954
G1 X95.495 Y114.029 E176.55665
G1 X95.495 Y113.270 E176.60743
G1 X86.880 Y104.655 E177.42272
G1 X87.639 Y104.655 E177.47351
G1 X95.495 Y112.511 E178.21698
G1 X95.495 Y111.752 E178.26777
G1 X88.398 Y104.655 E178.93942
G1 X89.157 Y104.655 E178.99021
G1 X95.495 Y110.993 E179.59005
G1 X95.495 Y110.234 E179.64083
G1 X89.916 Y104.655 E180.16885
G1 X90.674 Y104.655 E180.21963
G1 X95.495 Y109.476 E180.67584
G1 X95.495 Y108.717 E180.72662
G1 X91.433 Y104.655 E181.11100
G1 X92.192 Y104.655 E181.16179
G1 X95.495 Y107.958 E181.47435
G1 X95.495 Y107.199 E181.52514
G1 X92.951 Y104.655 E181.76588
G1 X93.710 Y104.655 E181.81667
G1 X95.495 Y106.440 E181.98560
G1 X95.495 Y105.681 E182.03638
G1 X94.469 Y104.655 E182.13349
G1 X95.227 Y104.655 E182.18427
G1 X95.495 Y104.923 E182.20957
G1 E180.20957 F600.00000
G92 E0
G1 X95.629 Y95.629 F3600.000
G1 E2.00000 F600.00000
G1 X63.371 Y95.629 E4.15498 F1800.000
G1 X63.371 Y58.521 E6.63396
G1 X95.629 Y58.521 E8.78894
G1 X95.629 Y95.569 E11.26391
G1 X96.164 Y96.164 F3600.000
G1 X62.836 Y96.164 E13.49045 F1800.000
G1 X62.836 Y57.986 E16.04100
G1 X96.164 Y57.986 E18.26754
G1 X96.164 Y96.104 E20.81408
G1 X96.700 Y96.700 F3600.000
G1 X62.300 Y96.700 E23.11219 F900.000
G1 X62.300 Y57.450 E25.73430
G1 X96.700 Y57.450 E28.03241
G1 X96.700 Y96.640 E30.65051
G1 X96.354 Y96.500 F3600.000
G1 X63.505 Y95.227 F3600.000
G1 X63.773 Y95.495 E30.67580 F900.000
G1 X64.531 Y95.495 E30.72658
G1 X63.505 Y94.469 E30.82369
G1 X63.505 Y93.710 E30.87447
G1 X65.290 Y95.495 E31.04339
G1 X66.049 Y95.495 E31.09418
G1 X63.505 Y92.951 E31.33492
G1 X63.505 Y92.192 E31.38570
G1 X66.808 Y95.495 E31.69826
G1 X67.567 Y95.495 E31.74904
G1 X63.505 Y91.433 E32.13342
G1 X63.505 Y90.674 E32.18421
G1 X68.326 Y95.495 E32.64040
G1 X69.084 Y95.495 E32.69119
G1 X63.505 Y89.916 E33.21920
G1 X63.505 Y89.157 E33.26998
G1 X69.843 Y95.495 E33.86982
G1 X70.602 Y95.495 E33.92060
G1 X63.505 Y88.398 E34.59225
G1 X63.505 Y87.639 E34.64303
G1 X71.361 Y95.495 E35.38650
G1 X72.120 Y95.495 E35.43729
G1 X63.505 Y86.880 E36.25258
G1 X63.505 Y86.122 E36.30336
G1 X72.878 Y95.495 E37.19046
G1 X73.637 Y95.495 E37.24125
G1 X63.505 Y85.363 E38.20017
G1 X63.505 Y84.604 E38.25095
G1 X74.396 Y95.495 E39.28170
G1 X75.155 Y95.495 E39.33248
G1 X63.505 Y83.845 E40.43504
G1 X63.505 Y83.086 E40.48582
G1 X75.914 Y95.495 E41.66020
